src/lib/packages/icons/src/assets/line/chromecast.svg

<svg width="24" height="24" viewBox="0 0 24 24" fill="none" xmlns="http://www.w3.org/2000/svg">
<path d="M3.13 20.8701C2.87 20.8701 2.60905 20.7601 2.43005 20.5701C2.33005 20.4801 2.25996 20.37 2.20996 20.25C2.15996 20.13 2.13 20.0001 2.13 19.8701C2.13 19.8001 2.14002 19.7299 2.15002 19.6699C2.16102 19.6099 2.18006 19.54 2.21106 19.48C2.23106 19.42 2.27103 19.3601 2.30103 19.3101C2.34103 19.2601 2.38103 19.2099 2.43103 19.1599C2.80103 18.7899 3.47094 18.7899 3.84094 19.1599C4.02094 19.3399 4.13098 19.6001 4.13098 19.8701C4.13098 20.0001 4.11004 20.13 4.06104 20.25C4.01104 20.37 3.93094 20.4801 3.84094 20.5701C3.64894 20.7601 3.399 20.8701 3.13 20.8701ZM6.72498 20.6201C7.13498 20.5641 7.42194 20.1859 7.36694 19.7749C7.22394 18.7279 6.74706 17.7729 5.98706 17.0129C5.22806 16.2539 4.27298 15.777 3.22498 15.634C2.82098 15.583 2.437 15.8649 2.38 16.2749C2.324 16.6859 2.60997 17.0641 3.02197 17.1201C3.74297 17.2191 4.40103 17.549 4.92603 18.074C5.45203 18.6 5.781 19.259 5.88 19.979C5.932 20.355 6.25295 20.627 6.62195 20.627C6.65595 20.627 6.68998 20.6251 6.72498 20.6201ZM10.057 20.748C10.47 20.717 10.78 20.3571 10.748 19.9441C10.599 17.9601 9.73795 16.089 8.32495 14.675C6.91095 13.262 5.04003 12.401 3.05603 12.252C2.64203 12.219 2.28398 12.5301 2.25098 12.9441C2.21998 13.3571 2.52902 13.717 2.94202 13.748C4.56902 13.871 6.10294 14.5771 7.26294 15.7361C8.42194 16.8961 9.128 18.4299 9.25 20.0559C9.28 20.4499 9.60795 20.75 9.99695 20.75C10.0189 20.75 10.037 20.75 10.057 20.748ZM21.75 17V8C21.75 5.582 20.418 4.25 18 4.25H6C3.582 4.25 2.25 5.582 2.25 8V9C2.25 9.414 2.586 9.75 3 9.75C3.414 9.75 3.75 9.414 3.75 9V8C3.75 6.423 4.423 5.75 6 5.75H18C19.577 5.75 20.25 6.423 20.25 8V17C20.25 18.577 19.577 19.25 18 19.25H14C13.586 19.25 13.25 19.586 13.25 20C13.25 20.414 13.586 20.75 14 20.75H18C20.418 20.75 21.75 19.418 21.75 17Z" fill="currentColor"/>
</svg>

<svg xmlns="http://www.w3.org/2000/svg" width="24" height="24" fill="none"><path fill="currentColor" d="M3.13 20.87a.975.975 0 0 1-.7-.3.995.995 0 0 1-.28-.9.7.7 0 0 1 .061-.19c.02-.06.06-.12.09-.17.04-.05.08-.1.13-.15.37-.37 1.04-.37 1.41 0 .18.18.29.44.29.71 0 .13-.021.26-.07.38-.05.12-.13.23-.22.32-.192.19-.442.3-.711.3Zm3.595-.25a.752.752 0 0 0 .642-.845 4.799 4.799 0 0 0-1.38-2.762 4.798 4.798 0 0 0-2.762-1.379.758.758 0 0 0-.845.64.75.75 0 0 0 .642.846 3.32 3.32 0 0 1 1.904.954c.526.526.855 1.185.954 1.905a.75.75 0 0 0 .845.641Zm3.332.128a.749.749 0 0 0 .691-.804 8.346 8.346 0 0 0-2.423-5.269 8.345 8.345 0 0 0-5.269-2.423.75.75 0 1 0-.114 1.496 6.85 6.85 0 0 1 4.32 1.988 6.842 6.842 0 0 1 1.988 4.32.75.75 0 0 0 .747.694c.022 0 .04 0 .06-.002ZM21.75 17V8c0-2.418-1.332-3.75-3.75-3.75H6C3.582 4.25 2.25 5.582 2.25 8v1a.75.75 0 0 0 1.5 0V8c0-1.577.673-2.25 2.25-2.25h12c1.577 0 2.25.673 2.25 2.25v9c0 1.577-.673 2.25-2.25 2.25h-4a.75.75 0 0 0 0 1.5h4c2.418 0 3.75-1.332 3.75-3.75Z"/></svg>
